dhis-2/dhis-support/dhis-support-system/src/main/resources/SVGs/iud_outline.svg

<?xml version="1.0" encoding="UTF-8" standalone="no"?>
<!-- Created with Inkscape (http://www.inkscape.org/) -->
<svg id="svg8" xmlns:rdf="http://www.w3.org/1999/02/22-rdf-syntax-ns#" xmlns="http://www.w3.org/2000/svg" xmlns:osb="http://www.openswatchbook.org/uri/2009/osb" height="48" width="48" version="1.1" xmlns:cc="http://creativecommons.org/ns#" viewBox="0 0 12.7 12.7" xmlns:dc="http://purl.org/dc/elements/1.1/">
 <title id="title4753">UIO-icon</title>
 <metadata id="metadata5">
  <rdf:RDF>
   <cc:Work rdf:about="">
    <dc:format>image/svg+xml</dc:format>
    <dc:type rdf:resource="http://purl.org/dc/dcmitype/StillImage"/>
    <dc:title>UIO-icon</dc:title>
    <dc:creator>
     <cc:Agent>
      <dc:title>Joaquín Urbano</dc:title>
     </cc:Agent>
    </dc:creator>
    <dc:rights>
     <cc:Agent>
      <dc:title>GPL</dc:title>
     </cc:Agent>
    </dc:rights>
   </cc:Work>
  </rdf:RDF>
 </metadata>
 <g id="layer1" transform="translate(0,-284.3)" fill="#333">
  <path id="rect900" d="m7.9414 4.3633c-0.45295 0-0.81836 0.36541-0.81836 0.81836 0 0.4529 0.3655 0.8183 0.8184 0.8183h15.424v32.043c-0.70005 0.31936-1.1496 1.0177-1.1504 1.7871-0.0000862 1.0863 0.88053 1.9669 1.9668 1.9668 0.91335-0.00162 1.7054-0.63184 1.9121-1.5215 1.9567 0.31294 2.3656 0.57425 3.3203 2.6387 0.15462 0.25465 0.37861 0.43812 0.76134 0.25276 1.665-1.1101 1.5679-0.45887 2.9821 0.83318h0.65778c-1.615-1.5177-1.9128-2.4953-3.3725-1.5923-0.62127 0.38248-0.57826 0.27426-0.70538 0.014611-0.902-1.854-1.546-2.237-3.592-2.662-0.027-0.743-0.47-1.407-1.145-1.717v-32.043h15.424c0.45295 0 0.81836-0.36541 0.81836-0.81836s-0.36541-0.81836-0.81836-0.81836h-17.059zm-0.0019531 0.51367h32.488c0.16679 0 0.30273 0.13594 0.30273 0.30273s-0.13594 0.30078-0.30273 0.30078h-15.943v33.039c0.54101 0.1245 0.95036 0.56796 1.0312 1.1172l-0.66211-0.13086c-0.12857-0.24931-0.38551-0.40604-0.66602-0.40625-0.41421-1e-8 -0.75 0.33579-0.75 0.75-1e-8 0.41421 0.33579 0.75 0.75 0.75 0.33973-0.00001669 0.63702-0.22839 0.72461-0.55664l0.574 0.113c-0.14955 0.59916-0.68714 1.0201-1.3047 1.0215-0.74423-0.00014695-1.3475-0.60343-1.3477-1.3477 0.00084884-0.62852 0.43597-1.173 1.0488-1.3125v-33.036h-15.942c-0.16679 0-0.30078-0.13399-0.30078-0.30078s0.13399-0.30273 0.30078-0.30273z" fill-rule="evenodd" transform="matrix(.26458 0 0 .26458 0 284.3)"/>
 </g>
</svg>

<svg width="48" height="48" viewBox="0 0 48 48" fill="none" xmlns="http://www.w3.org/2000/svg">
<path fill-rule="evenodd" clip-rule="evenodd" d="M7.9414 4.36328C7.48845 4.36328 7.12305 4.72869 7.12305 5.18163C7.12305 5.63453 7.48854 5.99992 7.94144 5.99992H23.3652V38.0425C22.6652 38.3619 22.2157 39.0602 22.2149 39.8296C22.2148 40.9159 23.0954 41.7965 24.1816 41.7964C25.095 41.7948 25.887 41.1645 26.0937 40.2749C28.0504 40.5878 28.4593 40.8491 29.414 42.9136C29.5686 43.1682 29.7926 43.3517 30.1753 43.1663C31.8403 42.0562 31.7432 42.7075 33.1574 43.9995H33.8151C32.2002 42.4818 31.9024 41.5042 30.4427 42.4072C29.8214 42.7897 29.8644 42.6815 29.7373 42.4218C28.8353 40.5678 28.1913 40.1848 26.1453 39.7598C26.1184 39.0169 25.6754 38.3529 25.0004 38.0429V6.00027H40.4242C40.8771 6.00027 41.2425 5.63487 41.2425 5.18192C41.2425 4.72898 40.8771 4.36357 40.4242 4.36357H23.3654L7.9414 4.36328ZM7.93944 4.87694H40.427C40.5938 4.87694 40.7298 5.01288 40.7298 5.17967C40.7298 5.34646 40.5938 5.48045 40.427 5.48045H24.4842V38.519C25.0252 38.6435 25.4346 39.087 25.5154 39.6362L24.8533 39.5054C24.7248 39.2561 24.4678 39.0993 24.1873 39.0991C23.7731 39.0991 23.4373 39.4349 23.4373 39.8491C23.4373 40.2633 23.7731 40.5991 24.1873 40.5991C24.527 40.5991 24.8243 40.3707 24.9119 40.0425L25.4859 40.1555C25.3364 40.7546 24.7988 41.1755 24.1812 41.1769C23.437 41.1768 22.8337 40.5735 22.8335 39.8293C22.8344 39.2008 23.2695 38.6563 23.8823 38.5168V5.4812H7.94052C7.77374 5.4812 7.63975 5.34721 7.63975 5.18042C7.63975 5.01363 7.77374 4.87769 7.94052 4.87769L7.93944 4.87694Z" fill="#333333"/>
</svg>
